build/flags/SaudiArabia.svg

<svg xmlns="http://www.w3.org/2000/svg" fill="none" viewBox="0 0 28 28" focusable="false"><defs><filter id="Saudi_Arabia_svg__a"><feColorMatrix values="0 0 0 0 1 0 0 0 0 1 0 0 0 0 1 0 0 0 1 0"/></filter></defs><mask id="Saudi_Arabia_svg__b" width="28" height="20" x="0" y="4" maskUnits="userSpaceOnUse"><g filter="url(#Saudi_Arabia_svg__a)"><rect width="28" height="20" y="4" fill="#FFF" rx="3"/><rect width="28" height="20" y="4" stroke="#969696" stroke-opacity="0" stroke-width="0" rx="3"/></g></mask><path fill="none" d="M0 0H28V28H0z"/><rect width="28" height="20" y="4" fill="#FFF" rx="3"/><rect width="28" height="20" y="4" rx="3"/><g mask="url(#Saudi_Arabia_svg__b)"><path fill="#128C4B" d="M0 4H28V24H0z"/><path d="M0 4H28V24H0z"/><path fill="#FFF" fill-rule="evenodd" d="M6.66663 16L17.3333 16L17.3333 15.0787C17.3333 14.5831 17.8548 14.2608 18.2981 14.4824L18.6666 14.6667L18.6666 16L20.6666 16C21.0348 16 21.3333 16.2985 21.3333 16.6667L21.3333 17.3334C21.3333 18.0697 20.7363 18.6667 20 18.6667L18 18.6667C17.6318 18.6667 17.3333 18.3682 17.3333 18L17.3333 17.3334L8.2761 17.3334C8.09929 17.3334 7.92972 17.2631 7.8047 17.1381L6.66663 16Z"/><path d="M17.3333 16L17.3333 15.0787C17.3333 14.5831 17.8548 14.2608 18.2981 14.4824L18.6666 14.6667L18.6666 16L20.6666 16C21.0348 16 21.3333 16.2985 21.3333 16.6667L21.3333 17.3334C21.3333 18.0697 20.7363 18.6667 20 18.6667L18 18.6667C17.6318 18.6667 17.3333 18.3682 17.3333 18L17.3333 17.3334L8.2761 17.3334C8.09929 17.3334 7.92972 17.2631 7.8047 17.1381L6.66663 16L17.3333 16Z"/><path fill="#FFF" fill-rule="evenodd" d="M6.66663 12.1381C6.66663 12.0497 6.70175 11.9649 6.76426 11.9024L7.09759 11.5691C7.22777 11.4389 7.22777 11.2278 7.09759 11.0977L6.76426 10.7643C6.70175 10.7018 6.66663 10.617 6.66663 10.5286L6.66663 9.66671C6.66663 9.48261 6.81586 9.33337 6.99996 9.33337L7.74532 9.33337C7.88595 9.33337 7.99996 9.44738 7.99996 9.58802L7.99996 9.58802C7.99996 9.85672 8.3622 9.94224 8.48236 9.7019L8.58175 9.50314C8.63377 9.39909 8.7401 9.33337 8.85643 9.33337L10.3333 9.33337C10.5174 9.33337 10.6666 9.48261 10.6666 9.66671L10.6666 9.66671C10.6666 9.8508 10.5174 10 10.3333 10L9.66663 10C9.48253 10 9.33329 10.1493 9.33329 10.3334L9.33329 10.3334C9.33329 10.5175 9.48253 10.6667 9.66663 10.6667L10.3333 10.6667C10.5174 10.6667 10.6666 10.8159 10.6666 11L10.6666 13C10.6666 13.1841 10.5174 13.3334 10.3333 13.3334L9.66663 13.3334C9.48253 13.3334 9.33329 13.1841 9.33329 13L9.33329 12.3334C9.33329 12.1493 9.48253 12 9.66663 12L9.66663 12C9.85072 12 9.99996 11.8508 9.99996 11.6667L9.99996 11.6667C9.99996 11.4826 9.85072 11.3334 9.66663 11.3334L8.99996 11.3334C8.81586 11.3334 8.66663 11.4826 8.66663 11.6667L8.66663 13C8.66663 13.1841 8.51739 13.3334 8.33329 13.3334L8.33329 13.3334C8.1492 13.3334 7.99996 13.1841 7.99996 13L7.99996 12.3334C7.99996 12.1493 7.85072 12 7.66663 12L7.66663 12C7.48253 12 7.33329 12.1493 7.33329 12.3334L7.33329 13C7.33329 13.1841 7.18405 13.3334 6.99996 13.3334L6.99996 13.3334C6.81586 13.3334 6.66663 13.1841 6.66663 13L6.66663 12.1381Z"/><path d="M7.09759 11.5691C7.22777 11.4389 7.22777 11.2278 7.09759 11.0977L6.76426 10.7643C6.70175 10.7018 6.66663 10.617 6.66663 10.5286L6.66663 9.66671C6.66663 9.48261 6.81586 9.33337 6.99996 9.33337L7.74532 9.33337C7.88595 9.33337 7.99996 9.44738 7.99996 9.58802C7.99996 9.85672 8.3622 9.94224 8.48236 9.7019L8.58175 9.50314C8.63377 9.39909 8.7401 9.33337 8.85643 9.33337L10.3333 9.33337C10.5174 9.33337 10.6666 9.48261 10.6666 9.66671C10.6666 9.8508 10.5174 10 10.3333 10L9.66663 10C9.48253 10 9.33329 10.1493 9.33329 10.3334C9.33329 10.5175 9.48253 10.6667 9.66663 10.6667L10.3333 10.6667C10.5174 10.6667 10.6666 10.8159 10.6666 11L10.6666 13C10.6666 13.1841 10.5174 13.3334 10.3333 13.3334L9.66663 13.3334C9.48253 13.3334 9.33329 13.1841 9.33329 13L9.33329 12.3334C9.33329 12.1493 9.48253 12 9.66663 12C9.85072 12 9.99996 11.8508 9.99996 11.6667C9.99996 11.4826 9.85072 11.3334 9.66663 11.3334L8.99996 11.3334C8.81586 11.3334 8.66663 11.4826 8.66663 11.6667L8.66663 13C8.66663 13.1841 8.51739 13.3334 8.33329 13.3334C8.1492 13.3334 7.99996 13.1841 7.99996 13L7.99996 12.3334C7.99996 12.1493 7.85072 12 7.66663 12C7.48253 12 7.33329 12.1493 7.33329 12.3334L7.33329 13C7.33329 13.1841 7.18405 13.3334 6.99996 13.3334C6.81586 13.3334 6.66663 13.1841 6.66663 13L6.66663 12.1381C6.66663 12.0497 6.70175 11.9649 6.76426 11.9024L7.09759 11.5691Z"/><path fill="#FFF" fill-rule="evenodd" d="M17.3334 12.1381C17.3334 12.0497 17.3685 11.9649 17.431 11.9024L17.7643 11.5691C17.8945 11.4389 17.8945 11.2278 17.7643 11.0977L17.431 10.7643C17.3685 10.7018 17.3334 10.617 17.3334 10.5286L17.3334 9.66671C17.3334 9.48261 17.4826 9.33337 17.6667 9.33337L18.4121 9.33337C18.5527 9.33337 18.6667 9.44738 18.6667 9.58802L18.6667 9.58802C18.6667 9.85672 19.0289 9.94224 19.1491 9.7019L19.2485 9.50314C19.3005 9.39909 19.4069 9.33337 19.5232 9.33337L21 9.33337C21.1841 9.33337 21.3334 9.48261 21.3334 9.66671L21.3334 9.66671C21.3334 9.8508 21.1841 10 21 10L20.3334 10C20.1493 10 20 10.1493 20 10.3334L20 10.3334C20 10.5175 20.1493 10.6667 20.3334 10.6667L21 10.6667C21.1841 10.6667 21.3334 10.8159 21.3334 11L21.3334 13C21.3334 13.1841 21.1841 13.3334 21 13.3334L20.3334 13.3334C20.1493 13.3334 20 13.1841 20 13L20 12.3334C20 12.1493 20.1493 12 20.3334 12L20.3334 12C20.5175 12 20.6667 11.8508 20.6667 11.6667L20.6667 11.6667C20.6667 11.4826 20.5175 11.3334 20.3334 11.3334L19.6667 11.3334C19.4826 11.3334 19.3334 11.4826 19.3334 11.6667L19.3334 13C19.3334 13.1841 19.1841 13.3334 19 13.3334L19 13.3334C18.8159 13.3334 18.6667 13.1841 18.6667 13L18.6667 12.3334C18.6667 12.1493 18.5175 12 18.3334 12L18.3334 12C18.1493 12 18 12.1493 18 12.3334L18 13C18 13.1841 17.8508 13.3334 17.6667 13.3334L17.6667 13.3334C17.4826 13.3334 17.3334 13.1841 17.3334 13L17.3334 12.1381Z"/><path d="M17.7643 11.5691C17.8945 11.4389 17.8945 11.2278 17.7643 11.0977L17.431 10.7643C17.3685 10.7018 17.3334 10.617 17.3334 10.5286L17.3334 9.66671C17.3334 9.48261 17.4826 9.33337 17.6667 9.33337L18.4121 9.33337C18.5527 9.33337 18.6667 9.44738 18.6667 9.58802C18.6667 9.85672 19.0289 9.94224 19.1491 9.7019L19.2485 9.50314C19.3005 9.39909 19.4069 9.33337 19.5232 9.33337L21 9.33337C21.1841 9.33337 21.3334 9.48261 21.3334 9.66671C21.3334 9.8508 21.1841 10 21 10L20.3334 10C20.1493 10 20 10.1493 20 10.3334C20 10.5175 20.1493 10.6667 20.3334 10.6667L21 10.6667C21.1841 10.6667 21.3334 10.8159 21.3334 11L21.3334 13C21.3334 13.1841 21.1841 13.3334 21 13.3334L20.3334 13.3334C20.1493 13.3334 20 13.1841 20 13L20 12.3334C20 12.1493 20.1493 12 20.3334 12C20.5175 12 20.6667 11.8508 20.6667 11.6667C20.6667 11.4826 20.5175 11.3334 20.3334 11.3334L19.6667 11.3334C19.4826 11.3334 19.3334 11.4826 19.3334 11.6667L19.3334 13C19.3334 13.1841 19.1841 13.3334 19 13.3334C18.8159 13.3334 18.6667 13.1841 18.6667 13L18.6667 12.3334C18.6667 12.1493 18.5175 12 18.3334 12C18.1493 12 18 12.1493 18 12.3334L18 13C18 13.1841 17.8508 13.3334 17.6667 13.3334C17.4826 13.3334 17.3334 13.1841 17.3334 13L17.3334 12.1381C17.3334 12.0497 17.3685 11.9649 17.431 11.9024L17.7643 11.5691Z"/><path fill="#FFF" fill-rule="evenodd" d="M16 10.3303C16 10.5161 15.8958 10.7709 15.7593 10.9074L15.574 11.0927C15.4411 11.2256 15.4375 11.4375 15.574 11.5741L15.7593 11.7594C15.8922 11.8923 16 12.1427 16 12.3365L16 12.9969C16 13.1827 15.8573 13.3334 15.6635 13.3334L15.0031 13.3334C14.8173 13.3334 14.6667 13.1907 14.6667 12.9969L14.6667 12.3365C14.6667 12.1507 14.6051 12.1231 14.512 12.3093L14.1546 13.0241C14.0692 13.1949 13.8431 13.3334 13.6697 13.3334L12.3303 13.3334C12.1479 13.3334 12 13.1788 12 13C12 12.8159 12.1427 12.6667 12.3365 12.6667L12.9969 12.6667C13.1827 12.6667 13.3333 12.5121 13.3333 12.3334C13.3333 12.1493 13.1906 12 12.9969 12L12.3365 12C12.1506 12 12 11.8567 12 11.6731L12 9.66036C12 9.47977 12.1427 9.33337 12.3365 9.33337L12.9969 9.33337C13.1827 9.33337 13.3333 9.47606 13.3333 9.66983L13.3333 10.3303C13.3333 10.5161 13.1787 10.6667 13 10.6667C12.8159 10.6667 12.6667 10.8213 12.6667 11C12.6667 11.1841 12.8094 11.3334 13.0031 11.3334L13.6635 11.3334C13.8494 11.3334 14 11.1764 14 11.0031L14 9.66363C14 9.48124 14.1546 9.33337 14.3333 9.33337C14.5174 9.33337 14.6667 9.47606 14.6667 9.66983L14.6667 10.3303C14.6667 10.5161 14.8213 10.6667 15 10.6667C15.1841 10.6667 15.3333 10.524 15.3333 10.3303L15.3333 9.66983C15.3333 9.48401 15.488 9.33337 15.6667 9.33337C15.8508 9.33337 16 9.47606 16 9.66983L16 10.3303Z"/><path d="M15.7593 10.9074L15.574 11.0927C15.4411 11.2256 15.4375 11.4375 15.574 11.5741L15.7593 11.7594C15.8922 11.8923 16 12.1427 16 12.3365L16 12.9969C16 13.1827 15.8573 13.3334 15.6635 13.3334L15.0031 13.3334C14.8173 13.3334 14.6667 13.1907 14.6667 12.9969L14.6667 12.3365C14.6667 12.1507 14.6051 12.1231 14.512 12.3093L14.1546 13.0241C14.0692 13.1949 13.8431 13.3334 13.6697 13.3334L12.3303 13.3334C12.1479 13.3334 12 13.1788 12 13C12 12.8159 12.1427 12.6667 12.3365 12.6667L12.9969 12.6667C13.1827 12.6667 13.3333 12.5121 13.3333 12.3334C13.3333 12.1493 13.1906 12 12.9969 12L12.3365 12C12.1506 12 12 11.8567 12 11.6731L12 9.66036C12 9.47977 12.1427 9.33337 12.3365 9.33337L12.9969 9.33337C13.1827 9.33337 13.3333 9.47606 13.3333 9.66983L13.3333 10.3303C13.3333 10.5161 13.1787 10.6667 13 10.6667C12.8159 10.6667 12.6667 10.8213 12.6667 11C12.6667 11.1841 12.8094 11.3334 13.0031 11.3334L13.6635 11.3334C13.8494 11.3334 14 11.1764 14 11.0031L14 9.66363C14 9.48124 14.1546 9.33337 14.3333 9.33337C14.5174 9.33337 14.6667 9.47606 14.6667 9.66983L14.6667 10.3303C14.6667 10.5161 14.8213 10.6667 15 10.6667C15.1841 10.6667 15.3333 10.524 15.3333 10.3303L15.3333 9.66983C15.3333 9.48401 15.488 9.33337 15.6667 9.33337C15.8508 9.33337 16 9.47606 16 9.66983L16 10.3303C16 10.5161 15.8958 10.7709 15.7593 10.9074Z"/></g></svg>

<svg xmlns="http://www.w3.org/2000/svg" fill="none" viewBox="0 0 28 28" focusable="false"><path fill="none" d="M0 0h28v28H0z"/><rect width="28" height="20" y="4" fill="#FFF" rx="3"/><rect width="28" height="20" y="4" rx="3"/><mask id="Saudi_Arabia_svg__a" width="28" height="20" x="0" y="4" mask-type="alpha" maskUnits="userSpaceOnUse"><rect width="28" height="20" y="4" fill="#FFF" rx="3"/><rect width="28" height="20" y="4" stroke="#979797" stroke-opacity="0" stroke-width="0" rx="3"/></mask><g mask="url(#Saudi_Arabia_svg__a)"><path fill="#128C4B" d="M0 4h28v20H0z"/><path d="M0 4h28v20H0z"/></g><g mask="url(#Saudi_Arabia_svg__a)"><path fill="#FFF" fill-rule="evenodd" d="M6.66 16h10.67v-.93c0-.49.52-.81.96-.59l.37.18V16h2c.37 0 .67.29.67.66v.67c0 .73-.6 1.33-1.33 1.33h-2c-.37 0-.67-.3-.67-.66v-.67H8.27c-.18 0-.35-.07-.47-.2z"/><path d="M17.33 16v-.93c0-.49.52-.81.96-.59l.37.18V16h2c.37 0 .67.29.67.66v.67c0 .73-.6 1.33-1.33 1.33h-2c-.37 0-.67-.3-.67-.66v-.67H8.27c-.18 0-.35-.07-.47-.2L6.66 16z"/></g><g mask="url(#Saudi_Arabia_svg__a)"><path fill="#FFF" fill-rule="evenodd" d="M6.66 12.13c0-.09.04-.17.1-.23l.33-.34c.13-.13.13-.34 0-.47l-.33-.33a.35.35 0 0 1-.1-.24v-.86c0-.18.15-.33.33-.33h.75c.14 0 .25.11.25.25 0 .27.37.36.49.12l.1-.2c.05-.11.16-.17.27-.17h1.48a.335.335 0 0 1 0 .67h-.67c-.18 0-.33.14-.33.33 0 .18.15.33.33.33h.67c.18 0 .33.15.33.34v2c0 .18-.15.33-.33.33h-.67c-.18 0-.33-.15-.33-.33v-.67c0-.19.15-.33.33-.33.19 0 .33-.15.33-.34 0-.18-.14-.33-.33-.33h-.67c-.18 0-.33.15-.33.33V13a.335.335 0 0 1-.67 0v-.67a.32.32 0 0 0-.33-.33c-.18 0-.33.14-.33.33V13c0 .18-.15.33-.34.33-.18 0-.33-.15-.33-.33z"/><path d="M7.09 11.56c.13-.13.13-.34 0-.47l-.33-.33a.35.35 0 0 1-.1-.24v-.86c0-.18.15-.33.33-.33h.75c.14 0 .25.11.25.25 0 .27.37.36.49.12l.1-.2c.05-.11.16-.17.27-.17h1.48a.335.335 0 0 1 0 .67h-.67c-.18 0-.33.14-.33.33 0 .18.15.33.33.33h.67c.18 0 .33.15.33.34v2c0 .18-.15.33-.33.33h-.67c-.18 0-.33-.15-.33-.33v-.67c0-.19.15-.33.33-.33.19 0 .33-.15.33-.34 0-.18-.14-.33-.33-.33h-.67c-.18 0-.33.15-.33.33V13a.335.335 0 0 1-.67 0v-.67a.32.32 0 0 0-.33-.33c-.18 0-.33.14-.33.33V13a.335.335 0 0 1-.67 0v-.87c0-.09.04-.17.1-.23z"/></g><g mask="url(#Saudi_Arabia_svg__a)"><path fill="#FFF" fill-rule="evenodd" d="M17.33 12.13c0-.09.03-.17.1-.23l.33-.34c.13-.13.13-.34 0-.47l-.33-.33a.31.31 0 0 1-.1-.24v-.86c0-.18.15-.33.33-.33h.75c.14 0 .25.11.25.25 0 .27.36.36.48.12l.1-.2a.31.31 0 0 1 .28-.17H21a.335.335 0 0 1 0 .67h-.67a.32.32 0 0 0-.33.33c0 .18.14.33.33.33H21c.18 0 .33.15.33.34v2c0 .18-.15.33-.33.33h-.67c-.19 0-.33-.15-.33-.33v-.67c0-.19.14-.33.33-.33.18 0 .33-.15.33-.34 0-.18-.15-.33-.33-.33h-.67c-.18 0-.33.15-.33.33V13a.335.335 0 0 1-.67 0v-.67c0-.19-.15-.33-.33-.33a.32.32 0 0 0-.33.33V13c0 .18-.15.33-.34.33-.18 0-.33-.15-.33-.33z"/><path d="M17.76 11.56c.13-.13.13-.34 0-.47l-.33-.33a.31.31 0 0 1-.1-.24v-.86c0-.18.15-.33.33-.33h.75c.14 0 .25.11.25.25 0 .27.36.36.48.12l.1-.2a.31.31 0 0 1 .28-.17H21a.335.335 0 0 1 0 .67h-.67a.32.32 0 0 0-.33.33c0 .18.14.33.33.33H21c.18 0 .33.15.33.34v2c0 .18-.15.33-.33.33h-.67c-.19 0-.33-.15-.33-.33v-.67c0-.19.14-.33.33-.33a.335.335 0 0 0 0-.67h-.67c-.18 0-.33.15-.33.33V13a.335.335 0 0 1-.67 0v-.67c0-.19-.15-.33-.33-.33a.32.32 0 0 0-.33.33V13a.335.335 0 0 1-.67 0v-.87c0-.09.03-.17.1-.23z"/></g><g mask="url(#Saudi_Arabia_svg__a)"><path fill="#FFF" fill-rule="evenodd" d="M16 10.33c0 .18-.11.44-.25.57l-.18.19c-.13.13-.14.34 0 .48l.18.18c.14.14.25.39.25.58v.66c0 .19-.15.34-.34.34H15c-.19 0-.34-.14-.34-.34v-.66c0-.18-.06-.21-.15-.03l-.36.72c-.09.17-.31.31-.49.31h-1.33c-.19 0-.33-.16-.33-.33 0-.19.14-.34.33-.34h.66c.19 0 .34-.15.34-.33 0-.19-.14-.33-.34-.33h-.66c-.18 0-.33-.15-.33-.33V9.66c0-.19.14-.33.33-.33h.66c.19 0 .34.14.34.33v.67c0 .18-.16.33-.33.33-.19 0-.34.16-.34.34s.14.33.34.33h.66c.18 0 .34-.16.34-.33V9.66c0-.18.15-.33.33-.33s.33.14.33.33v.67c0 .18.16.33.34.33s.33-.14.33-.33v-.67c0-.18.15-.33.33-.33.19 0 .34.14.34.33z"/><path d="m15.75 10.9-.18.19c-.13.13-.14.34 0 .48l.18.18c.14.14.25.39.25.58v.66c0 .19-.15.34-.34.34H15c-.19 0-.34-.14-.34-.34v-.66c0-.18-.06-.21-.15-.03l-.36.72c-.09.17-.31.31-.49.31h-1.33c-.19 0-.33-.16-.33-.33 0-.19.14-.34.33-.34h.66c.19 0 .34-.15.34-.33 0-.19-.14-.33-.34-.33h-.66c-.18 0-.33-.15-.33-.33V9.66c0-.19.14-.33.33-.33h.66c.19 0 .34.14.34.33v.67c0 .18-.16.33-.33.33-.19 0-.34.16-.34.34s.14.33.34.33h.66c.18 0 .34-.16.34-.33V9.66c0-.18.15-.33.33-.33s.33.14.33.33v.67c0 .18.16.33.34.33s.33-.14.33-.33v-.67c0-.18.15-.33.33-.33.19 0 .34.14.34.33v.67c0 .18-.11.44-.25.57"/></g></svg>
